X:32
%%score 1 2
%%pagewidth 950pt
T:Wolsey's Wild
M:6/8
L:1/8
K:D
V:1 clef-treble
V:2 clef-bass octave=-1
V:1
A|[Fd]2A (FA)F|(GA)F [CE]2D & D3 x3|[Fd]2A FAF|
w:Quoth John to Joan* wilt thou* have me? I prithee now, wilt? And I'se
V:2
z|D,6|B2A G2F & D6|D,6|
V:1
cBc d2 & G3 F2||A|([DF]G)A D2A|(Bc)d [Ec]2A & G3 x3|([DF]G)A (AB)A & x3 D3|(Bc)d c2A & G3 E3|
w:mar-ry with thee, My cow,* my calf, my house,* my rents, And all* my lands* and tenements:*** O
V:2
A,3 D2||z|D3 F3| G3 A3| D3 F3|G3 A3|
V:1
FGA EFG & D3 C3| FGA (GA)B & D3 D3|FGA (EF)G & D3 B,3|(FE)[CE] D2 & A,2 x3||
w:say, my Joan, say my Joan, will not that do?* I can-not come ev'--ry day* to woo.
V:2
D3 A,3|D2C B,2G,|D,3 G,3|x2 GF2 & A,3 D2||

